X: 2669
T: Bank Of Turf, The
R: jig
M: 6/8
K: Dmajor
dB|:ABA DFA|BAF DFA|dcd ede|~f3 def|
~g3 gab|afd B3|1 efe e2d|cBA AdB:|2 ABA efe|d3 dcd||
|:eAA efg|fdd fga|gfe fed|edB ABd|
eAA efg|fdd fga|gfe dcB|1 A3 Bcd:|2 A3 AdB||

